!!!OTL: Goldringlein.
!!!ARE: Europa, Mitteleuropa, Deutschland
!!!SCT: A0195
!!!TXL: @@GMH
!!!YEM: Copyright 1995, estate of Helmut Schaffrath.
**kern	**text
*M3/1	*
*met(O)	*
*clefC3	*
*k[b-]	*
*F:ion	*
=1	=1
!LO:TX:a:t=jon. tr. (F.) Tenor secundus.	!
1ryy	.
1ryy	.
{1F	Mir
=2	=2
0A	iſt
1B-	ein
=3	=3
0c	rot
1f	gold-
=4	=4
*lig	*
1c	-fin-
1A	.
*Xlig	*
1B-	-ger-
=5	=5
0.c	-lein
=6	=6
1r	.
1r}	.
{1c	auff
=7	=7
0f	mei-
1e	-nen
=8	=8
*lig	*
1d	fuß
1c	.
*Xlig	*
1g	ge-
=9	=9
*lig	*
1f	-fal-
2e	.
2c	.
1d	.
*Xlig	*
=10	=10
0c	-len;
1r	.
=11	=11
1r	.
1r}	.
{1c	ſo
=12	=12
0f	darff
1c	ichs
=13	=13
*lig	*
1c	doch
1A	.
*Xlig	*
1c	nit
=14	=14
1B-	.
*lig	*
2A	he-
2F	.
1G	-ben
*Xlig	*
=15	=15
0.F	auff,
=16	=16
1r	.
1r}	.
{1A	die
=17	=17
0c	leut
1F	die
=18	=18
*lig	*
1G	ſe-
1F	.
*Xlig	*
1c	-hens
=19	=19
*lig	*
1B-	al-
2A	.
2F	.
1G	.
*Xlig	*
=20	=20
0./llF}	-le.
==	==
!!!GTL: Liebeslieder
!!!AGN: Romanze, Ballade, Lied
!! Joh. Ott III 1544 No. 4 und Forster V. 1556 No. 6 und 9.
!!!ONB: ESAC (Essen Associative Code) Database: ALTDEU
!!!AMT: simple triple
!!!AIN: vox
!!!EED: Helmut Schaffrath
!!!EEV: 1.0
!!@@COMMENT:"Die in Takt 4, 8, 13 und 18 des Originals stehende»Ligaturenvon schräger Form habeichausgelöstund durch Klammer die betreffende»
!!Noten zusammengezogen. Die Zwischenpansen nach jedem Zeilenschlnß sind für die Periodik störend und
!! mögen fortfallen,wenn die Melodie einstimmig gesungen wird. Daß im Original die Schlußnoten der 3 ersten Zeilen keine Verlängerungspunkte haben,
!! aber stets im tempus perfectum (wie hier)als dreizeitige Noten zu messen sind, sei zur Beruhigung für die der allen Tonschriftsregeln unkundigen Leserbemerkt."
!!@@END:
!!!RDF**kern: l = terminal long
!!!AMD: Ionian
!!!URL-scan: https://rosdok.uni-rostock.de/mcrviewer/recordIdentifier/rosdok_ppn738218359/iview2/phys_0351.iview2?x=-495.6391625615763&y=1782.5121139253024&scale=0.4629418472063854&rotation=0&layout=singlePageLayout&logicalDiv=log_0009
!!!ENC: Anna Maria Matuszewska
!!!EEV: 2024/07/03
*-	*-
